X:1
T:III. The Roadside Fire
T:III. The Roadside Fire
T:Songs of Travel
T:Ralph Vaughan Williams
T:Robert Louis Stevenson
C:Ralph Vaughan Williams
Z:Robert Louis Stevenson
%%score ( 1 2 ) { ( 3 6 ) | ( 4 5 ) }
L:1/8
Q:1/4=116
M:4/4
K:Db
V:1 treble nm="Voice"
V:2 treble 
V:3 treble nm="Piano"
V:6 treble 
V:4 bass 
V:5 bass 
V:1
"^Allegretto" z8 | z8 |"^poco scherzando"[Q:1/4=126]"^T" (A4- ABAF | D2 F4) (A2 | B3 c B2 F2 | %5
w: ||I * will make you|broo- ches and|toys for your de-|
 A6) (A2 |!<(! B2 d4!<)!!>(! c2!>)! | B4 F2) F2 | ((B3 c) B2 F2 | A6) z2 | %10
w: light, Of|bird- song at|morn- ing and|star- * shine at|night.|
!mf!"^cresc." (G4- G A G E | (D2 G4) B2 | A B A4 E2 | A6)!>(! (B2!>)! |!p! (_cd) c4 A2 | %15
w: I _ will make a|pa- * lace|fit for you and|me, Of|green * days in|
 (G2 E2) G2) (A2 | __B2 _F4 D2 | A8) | z8 | z8 | z8 | (A4- ABAF | D2 F4) (A2 | B3 c B2 F2 | %24
w: for- * ests, and|blue days at|sea.||||I _ will make my|kit- chen, and|you shall keep your|
 A6) (A2 |!<(! B4!<)!!>(! d3!>)! c | B2 F4) (F2 |!<(! B4!<)!!>(! c3 B!>)! | A6)!mf!"^cresc." (D2 | %29
w: room, Where|white flows the|ri- ver and|bright blows the|broom; And|
 G4- G A G E | D2 G4) (B2 | A3 B A2 E2 |!>(! A6)!>)!!pp! (B2 | (_cd) c4 A2 | (G2 E2)) (G2 A2 | %35
w: you * shall wash your|li- nen, and|keep your bo- dy|white In|rain- * fall at|morn- * ing and|
 __B2 _F4 D2 | A8) | z8 |[Q:1/4=110]"^T" z8[Q:1/4=100]"^T" | %39
w: dew- fall at|night.|||
[Q:1/4=90]"^T" z4[Q:1/4=80]"^T" z2!p! (A2 ||[K:E][Q:1/4=100]"^Meno mosso" G3 G!<(! G2!<)! ^A2 | %41
w: And|this shall be for|
!mf! B2 G4) E2 |[Q:1/4=75]"^largamente" (3(((A!<(!B) c)!<)!!>(! B4!>)! A2 | %43
w: mu- sic when|no * one else is|
!<(! G6)!<)![Q:1/4=90]"^T" (B2 |!<(! c4!<)!!>(! e3 d!>)! | c2 G4) (G2 |!<(! c4!<)!!>(! d3 c!>)! | %47
w: near, The|fine song for|sing- ing, the|rare song to|
 B4) z2 (E2 | A2 A2 B3 A | =G2 G3)[Q:1/4=60]"^largamente" (G (3(FG) A) |!>(! (=G6!>)! F2 | %51
w: hear! That|on- ly I re-|mem- ber, that on- * ly|you ad-|
 E6) (=G A |"^tranquillo" (Bc) B4 ^G2 ||[M:3/4][Q:1/4=70]"^T" (FDCB,CD ||[M:4/4] F2) F4) F (G | %55
w: mire, Of the|broad * road that|stretch- * * * * *|* es and the|
 A8- | A4 A4) ||[K:Db] d8- | d8 | z8 | z8 | z8 | z8 |] %63
w: road-|* side|fire.|_|||||
V:2
 x8 | x8 | x8 | x8 | x8 | x8 | x8 | x8 | x8 | x8 | x8 | x8 | x8 | x8 | x8 | x8 | x8 | x8 | x8 | %19
 x8 | x8 | x8 | x8 | x8 | x8 | x8 | x8 | x8 | x8 | x8 | x8 | x8 | x8 | x8 | x8 | x8 | x8 | x8 | %38
 x8 | x6 ^G2 ||[K:E] x8 | x8 | x8 | x8 | x8 | x8 | x8 | x8 | x8 | x8 | x8 | x8 | x8 ||[M:3/4] x6 || %54
[M:4/4] x8 | x8 | x4 __B4 ||[K:Db] x8 | x8 | x8 | x8 | x8 | x8 |] %63
V:3
!p! .[DF].[DA].[DF].[DA] .[DF].[DA].[DF].[DA] | .[DF].[DA].[DF].[DA] .[DF].[DA].[DF].[DA] | %2
 .[DF].[DA].[DF].[DA] .[DF].[DA].[DF].[DA] | .[DF].[DA].[DF].[DA] .[DF].[DA].[DF].[DA] | %4
 .[DB].[Fc].[DB].[Fc]"_simile" [DB][Fc][DB][Fc] | [DF][DA][DF][DA] [DF][DA][DF][DA] | %6
 [DB][Dc][DB][Dc] [DB][Dc][DB][Dc] | [DB][Dc][DB][Dc] [DB][Dc][DB][Dc] | %8
 [FB][Dc][FB][Dc] [FB][Dc][FB][DB] | [_CA][EB][CA]!<(![EB] [CA][EB][CA]!<)![EB] | %10
!mf! ([B,G]"_legato cresc."[B,A][B,G][B,A] [B,G][B,A][B,G][B,A] | %11
 [Bg][Ba][Bg][Ba] [Bg][Ba][Bg][db]) | ([!courtesy!=ca][db][ca][db] [ca][db][ca][db] | %13
 [ca][db][ca][db] [ca][db][ca][db]) |!pp! ([e_c'][_fd'][ec'][fd'] [ec'][fd'][ec'][fd'] | %15
 [e_c'][_fd'][ec'][da] [_cg][Ae][cg][ea]) | ([^c=a][=d=b][ca][=B^f] [=A=e][^Fc][Ae][cf]) | %17
 ([=f_a][_d_b][fa][db] [fa][db][fa][db] | [ac'][fd'][ac'][fd'] [d'e'][af'][d'e'][af']) | %19
 [f'a']2 ([df][ea] [df][ea][df][ea] | [df][ea][df][ea] [df][ea][df][ea]) | %21
 ([df][ea][df][ea] [df][ea][df][ea] | [df][ea][df][ea] [df][ea][df][ea]) | %23
 ([df][eb][df][eb] [df][eb][df][eb] | [df][ea][df][ea] [df][ea][df][ea]) | %25
 ([df][eb][df][eb] [df][eb][df][eb] | [df][eb][df][eb] [df][eb][df][eb]) | %27
 ([df][eb][df][eb] [d=g][ec'][dg][eb]) |!<(! (a4!<)!!>(! a3 c')!>)! | %29
"_legato" ([Bg][da][Bg][da] [Bg][da][Bg][da] | [Bg][da][Bg][da] [Bg][da][Bg][db]) | %31
 ([!courtesy!=ca][db][ca][db] [ca][db][ca][db] | [ca][db][ca][db] [ca][db][ca][db]) | %33
!pp! [e_c'][_fd'][ec'][fd'] [ec'][fd'][ec'][fd'] | ([e_c'][_fd'][ec'][fd'] [_cg][Ae][cg][ea]) | %35
 ([^c=a][=d=b][ca][=B^f] [=A=e][^Fc][Ae][cf] |!pp! [=f_a][_d_b][fa][db] [fa][db][fa][db] | %37
 [ac'][fd'][ac'][fd'] [d'e'][af'][d'e'][af']) | %38
!pp![I:staff +1] (d/f/a/b/[I:staff -1]d'/f'/a'/b'/)[I:staff +1] (D/"_en"F/A/B/[I:staff -1]d/f/a/b/) | %39
[I:staff +1] (D,/F,/A,/B,/[I:staff -1]D/F/A/B/)[I:staff +1] (D,/F,/A,/"_do."B,/[I:staff -1]D/F/A/B/) || %40
[K:E][I:staff +1] (C,/E,/G,/^A,/[I:staff -1]C/E/G/^A/)[I:staff +1] (C,/E,/G,/A,/[I:staff -1]=C/E/G/A/) | %41
[I:staff +1] (B,,/E,/F,/G,/[I:staff -1]B,/E/F/G/)[I:staff +1] (B,,/E,/F,/G,/[I:staff -1]B,/E/F/B/) | %42
[I:staff +1] (B,,/E,/F,/A,/[I:staff -1]C/E/F/A/)[I:staff +1] (B,,/E,/F,/A,/[I:staff -1]B,/E/F/A/) | %43
!<(![I:staff +1] (B,,/E,/F,/G,/[I:staff -1]B,/E/F/G/)!<)![I:staff +1] (D,/E,/G,/B,/[I:staff -1]E/F/G/B/) | %44
!<(![I:staff +1] (C,/E,/G,/B,/[I:staff -1]C/E/G/B/)!<)![I:staff +1] (B,,/E,/G,/B,/[I:staff -1]C/E/G/B/) | %45
!<(![I:staff +1] (^A,,/C,/E,/G,/[I:staff -1]C/E/G/c/)!<)![I:staff +1] (G,,/C,/E,/G,/[I:staff -1]C/E/G/B/) | %46
!<(![I:staff +1] (F,,/C,/E,/^A,/[I:staff -1]C/E/G/^A/)!<)![I:staff +1] (F,/C/E/^A/[I:staff -1]c/e/g/^a/) | %47
"^cantanto"!<(! ([B=db]4!<)!!>(! [cec']3 [Bdb])!>)! | ([Aca]4 [B=db]3 [A=ca]) | %49
 [=GB=g]6 (3[FAf][GBg][A=ca] |!>(! [=GB=g]6 [FAf]2!>)! |!pp! [E=Ge]4 x4 | x8 ||[M:3/4] x6 || %54
[M:4/4] z6 B/d/f/g/ | ([ca][=db] [ca]4 [Bf]2 |!>(! [Ae][Fc][EB][CA] [EB][Fc][Ae][cf])!>)! || %57
[K:Db]!pp! ([df][db][df][db] [df][db][df][db] | %58
!pp!"_una corda" [df][db][df][db] [df][db][df][db]) | %59
 ([ac'][fd'][ac'][fd'] [d'e'][af'][d'e'][af']) |!>(!!8va(! [d'a'][f'b'][d'a'][f'b'] [a'd'']4-!>)! | %61
 [a'd'']4!8va)! !tenuto![A,DF]4 | !tenuto![A,DF]8 |] %63
V:4
 .[D,F,].[A,,E,].[D,F,].[A,,E,] .[D,F,].[A,,E,].[D,F,].[A,,E,] | %1
 .[D,F,].[A,,E,].[D,F,].[A,,E,] .[D,F,].[A,,E,].[D,F,].[A,,E,] | %2
 .[D,F,].[A,,E,].[D,F,].[A,,E,] .[D,F,].[A,,E,].[D,F,].[A,,E,] | %3
 .[D,F,].[A,,E,].[D,F,].[A,,E,] .[D,F,].[A,,E,].[D,F,].[A,,E,] | %4
 .[D,F,].[A,,E,].[D,F,].[A,,E,] [D,F,][A,,E,][D,F,][A,,E,] | %5
 [D,F,][A,,E,][D,F,][A,,E,] [D,F,][A,,E,][D,F,][A,,E,] | F,B,F,B, F,B,F,B, | F,B,F,B, F,B,F,B, | %8
 [=G,,F,B,]2 z2 [E,,D,=G,]2 z2 | [A,,E,A,]2 z2 [D,,A,,F,]2 z2 | (D,E,D,E, D,E,D,E, | DEDE DEDF) | %12
 (EFEF EFEF | EFEF EFEF) | (_CDCD CDCD | _CDCD CDCE) | (=A,=B,A,B, A,B,A,^C) | %17
[K:treble] (=FAFA FAFA | AdAd) [Ad]4 |[K:bass]!ped! .D,,.A,,.D,.E, .F,.A,.D.E | %20
 .F.E.D.A, .F,.E,.D,.A,,!ped-up! |!ped! .D,,.A,,.D,.E, .F,.A,.D.E | %22
 .F.E.D.A, .F,.E,.D,.A,,!ped-up! |!ped! .D,,.B,,.D,.E, .F,.B,.D.E!ped-up! | %24
!ped! .F.A.F.E .D.A,.F,.D,!ped-up! | .B,,.F,.B,.C .D.C.B,.F, | .A,,.F,.B,.C .D.C.B,.F, | %27
 =G,,3 F,, .E,,.B,,.E,.=G, | .A,,.E,.A,.B, ._C.A,.F,.D, | (G,,D,G,A, B,DB,D | B,DB,D B,DB,D) | %31
 (EFEF EFEF) | (EFEF EFEF) | (_CDCD CDCD | _CDCD CDCD) | (=A,=B,A,B, A,B,A,^C) | %36
[K:treble] (=FAFA FAFA | AdAd d4) |"_rall" x8 |[K:bass]"_tan" D,2 x2 D,2 x2 || %40
[K:E] C,2 x2 =C,2 x2 |!mf! B,,2 x2 B,,2 x2 | x4 x4 | x4 x4 | x4 x4 | x4 x4 | x4[K:treble] x4 | %47
[K:bass] (3(B,,,B,,=D, (3F,B,=D (3EG,E, (3D,B,,E,,) | %48
 (3(A,,,A,,C, (3E,A,C (3=DF,=D, (3=C,A,,=D,,) | %49
 (3z (=G,,,=D,, (3=G,,B,,=D,"^colla voce" (3=G,B,=D) (3(!tenuto!A,!tenuto!B,!tenuto!=C) | %50
 z !tenuto!^D !tenuto!B,!tenuto!A, (3(F,^D,B,, (3A,,F,,B,,,) | %51
 (E,,/=G,,/=C,/E,/[I:staff -1]=G,/=C/=D/E/)[I:staff +1] (E,/=G,/=C/E/[I:staff -1]G/=c/=d/e/) | %52
[I:staff +1][K:treble]!pp!"_tranquillo"!ped! (^D/4F/4G/4B/4[I:staff -1]^d/4f/4g/4b/4)[I:staff +1] (B,/4D/4F/4G/4[I:staff -1]B/4d/4f/4g/4)[I:staff +1][K:bass] (G,/4B,/4D/4F/4[I:staff -1]G/4B/4d/4f/4)[I:staff +1] (F,/4G,/4B,/4D/4[I:staff -1]F/4G/4B/4d/4) || %53
[M:3/4][I:staff +1] (D,/4F,/4G,/4B,/4[I:staff -1]D/4F/4G/4B/4)[I:staff +1] (B,,/4D,/4F,/4G,/4[I:staff -1]B,/4D/4F/4G/4)[I:staff +1] (G,,/4B,,/4D,/4F,/4[I:staff -1]G,/4B,/4D/4F/4) || %54
[M:4/4][I:staff +1] (F,,/4G,,/4B,,/4D,/4[I:staff -1]F,/4G,/4B,/4D/4)[I:staff +1] (F,/4G,/4B,/4D/4[I:staff -1]F/4G/4B/4d/4)[I:staff +1][K:treble] B,/D/F/G/ x2 | %55
[K:bass] (3(E,,!ped-up!A,,C, (3E,A,B, (3CEC (3A,E,C, | %56
 (3E,,A,,B,, (3C,E,C, (3E,,A,,B,, (3C,B,,A,,) ||[K:Db] (D,,A,,D,E, F,A,DF) |[K:treble] A4 FAFA | %59
 AdAd [Ad]4 | [dfa]4!ped! [fab]4- | [fab]4[K:bass] [D,,A,,D,]4 | [D,,A,,D,]8!ped-up! |] %63
V:5
 x8 | x8 | x8 | x8 | x8 | x8 | B,,8 | A,,8 | x8 | x8 | G,,8 | G,8 | G,8 | G,8 | G,8 | G,8 | =E,8 | %17
[K:treble] _D8 | F4 x4 |[K:bass] x8 | x8 | x8 | x8 | x8 | x8 | B,,8 | A,,8 | x4 E,,4 | x8 | x8 | %30
 z8 | G,8 | G,8 | G,8 | G,8 | =E,8 |[K:treble] _D8 | F4 A4 | d2 x2 D2 x2 |[K:bass] x8 ||[K:E] x8 | %41
 x8 | B,,4 x4 | B,,4 D,4 | C,4 B,,4 | A,,4 G,,4 | F,,4[K:treble] F,4 |[K:bass] B,,,4 E4 | %48
 A,,,4 =D4 | x8 | x8 | x8 |[K:treble] D2 B,2[K:bass] G,2 F,2 ||[M:3/4] D,2 B,,2 G,,2 || %54
[M:4/4] x4[K:treble] x4 |[K:bass] E,,8 | x8 ||[K:Db] x8 |[K:treble] x4 D4 | F4 x4 | x8 | %61
 x4[K:bass] x4 | x8 |] %63
V:6
 x8 | x8 | x8 | x8 | x8 | x8 | x8 | x8 | x8 | x8 | x8 | x8 | x8 | x8 | x8 | x8 | x8 | x8 | x8 | %19
 x8 | x8 | x8 | x8 | x8 | x8 | x8 | x8 | x8 | cece _cece | x8 | x8 | x8 | x8 | x8 | x8 | x8 | x8 | %37
 x8 | x8 | x8 ||[K:E] x8 | x8 | x8 | x8 | x8 | x8 | x8 | x8 | x8 | x8 | x8 | x8 | x8 || %53
[M:3/4] x6 ||[M:4/4] x8 | x8 | x8 ||[K:Db] x8 | x8 | x8 |!8va(! x8 | x4!8va)! x4 | x8 |] %63

